!!!COM: Music21
!!!OTL: Alalá
!!!OMV: pezas_alalas_alala-28_alala-partitura.musicxml
**kern
*I"Bagpipes
*I'Bag
*clefG^2
*k[]
*M3/4
=1
!LO:TX:a:t=Ad libitum
*MM100
!LO:TX:a:t=[quarter]=100
2r
4ee
=||
4aa
4aa-X
4aan
=
4bb
4ccc
4bb
=
4aa
4ee
4gg
=
4ff
4ee
4dd
=
[2.ee
=
2.ee_
=
2.ee_
=
2ee]
4ee
=
4aa
4aa-X
4aan
=
4bb
4ccc
4bb
=
4aa
4bb
4ccc
=
[2.ddd
!!linebreak:original
=
4ddd]
4ccc
4bb
!!linebreak:original
=
4aa
4bb
4aa-X
=
[2.aa
=
2.aa_
=
2.aa_
=
2aa]
4ee
=
4aa
4aa-X
4aan
=
4bb
4ccc
4bb
=
4aa
4bb
4aa
=
[2.gg
=
4gg]
4aa
4bb
=
4ccc
4gg
4ff
=
[2.ee
=
2.ee_
=
2.ee_
!!linebreak:original
=
4ee]
4ff
4ee
!!linebreak:original
=
4dd
4ee
4ff
=
4aa
4bb
4aa-X
=
4aa
4ee
4gg
=
4ff
4ff
4ee
=
[2.ee
=
2.ee_
=
2.ee_
=
2ee]
4ee
=
*-
